X:1
T:Title
%%score ( 1 2 ) { 3 | 4 }
L:1/8
Q:1/4=93
M:3/4
K:Ab
V:1 treble nm="Grand Piano, Soprano"
V:2 treble 
V:3 bass nm="Choir Pad, Odense, 87.87 D"
V:4 bass 
V:1
 [Ec][DB] [CA]3 [CE] | [DF]>[CE] [DF] [CA]3 | [Ec][Ed] [Ae]3 [Ec] | [EB]>[=DA] [EB]4 | %4
w: By~William~H.~Dunagan,~1912 * * *||||
 [Ec][DB] [CA]3 [CE] | [DF]>[CE] [DF] [CA]3 | [Fc][Ad] [Ge]3 [Ac] | [GB]>[Ec] [EA]4 | %8
w: ||||
 [EA][_GA] [Fd]4- | [Fd][Fd] [Af][Fd] [Ec][Ae]- | [Ae]4 [Ec][EB] | [FA]4- [FA][FA] | %12
w: ||||
 [GB][Ac] [GB]4- | [GB]2 [Ec][DB] [CA]2- | [CA]3 [CE] [DF][CE] | [DF][FA]- [FA]3- [FA]/ z/ | %16
w: ||||
 z2 e4- | e z z2 z2 | z6 |] %19
w: |||
V:2
 x6 | x6 | x6 | x6 | x6 | x6 | x6 | x6 | x6 | x6 | x6 | x6 | x6 | x6 | x6 | x6 | [Fc][Ad] GG GG | %17
 A[Ac] [GB][Ec] [EA]2- | [EA]6 |] %19
V:3
 A,E, E,3 A, | A,>A, A, A,3 | A,B, C3 A, | B,>F, G,4 | A,E, E,3 A, | A,>A, A, A,3 | %6
 A,A, B,3[K:treble] C | D>E C4 | CC D[K:bass]A, A,A, | A, D2 A, A,[K:treble]C | CC C2 A,B, | %11
 CC CC CC | E=D E2 E_D | B,2 A,E, E,E, | E,E, E,A, A,A, | A,[K:treble]D DD CC | A,A, B,B, B,B, | %17
 CC DE C2- | C6 |] %19
V:4
 A,,A,, A,,3 A,, | A,,>A,, A,, A,,3 | z A, A,4 | G,2 E,4 | A,,A,, A,,3 A,, | A,,>A,, D, F,3 | %6
 F,F, E,3 E, | E,>E, A,,4 | A,A, D,D, D,D, | D, D,2 D, z A, | A,A, A,2 z G, | F,F, F,F, F,F, | %12
 [B,,B,][B,,B,] E,2 G,B, | E,2 A,,A,, A,,A,, | A,,A,, A,,A,, A,,A,, | D,D, D,D, F,F, | F,F, E,4- | %17
 E,E, E,E, A,,2- | A,,6 |] %19

